svg/u1f41d.svg

<svg viewBox="0 0 128 128" xmlns="http://www.w3.org/2000/svg">
  <path d="M111.81,64.6c0,0,11.48-1.47,11.83-0.66c0.56,1.31-7.79,10.14-7.79,10.14L111.81,64.6z" fill="#5C6063"/>
  <path d="M70.05,68.08c0,0,6.01-7.13,17.18-9.57S112,60.57,115,68.17c3.24,8.21,2.07,17.42-3.38,24.03 c-5.73,6.95-14.55,14.36-29.38,13.23c-11.77-0.89-15.49-5.82-15.49-5.82L70.05,68.08z" fill="#FCD41E"/>
  <path d="M99.05,76.34c2.94,7.73,3.57,15.39,3.47,19.24c-0.09,3.85-0.38,5.16-0.38,5.16s3.94-2.53,6.38-4.88 c2.11-2.03,3.66-4.22,3.66-4.22s1.03-11.17-3-20.55S96.8,57.99,96.8,57.99s-2.86-0.61-6.1-0.23c-3.2,0.37-7.13,1.78-7.13,1.78 S94.26,63.76,99.05,76.34z" fill="#414340"/>
  <path d="M74.83,63.85c0,0,6.85,3.66,11.26,14.08c4.69,11.07,3.75,27.41,3.75,27.41s-2.91,0.45-6.1,0.38 c-2.06-0.05-5.73-0.8-5.73-0.8S79.06,91.73,75.3,83c-1.67-3.87-5.91-8.73-5.91-8.73L70,67.7L74.83,63.85z" fill="#414340"/>
  <path d="M39.92,89.57c0,0-4.97,2.16-9.48,3.1c-4.5,0.94-8.26,1.03-9.57,1.13c-1.31,0.09-3,0.66-2.72,3.57 c0.24,2.53,3.94,2.27,6.19,2.16c3.66-0.19,8.82-1.13,13.33-2.72s9.1-4.04,9.1-4.04L39.92,89.57z" fill="#5A6066"/>
  <path d="M66.25,65.26c0,0,21.68-27.59,24.64-31.53c2.96-3.94,7.32-10.98,12.25-11.12 c4.93-0.14,9.43,4.36,11.68,10.98c2.25,6.62,2.39,13.29-1.13,17.74c-4.79,6.05-18.02,15.35-28.44,18.02 c-10.42,2.67-16.47,3.38-16.47,3.38L66.25,65.26z" fill="#6DA3AF" opacity="0.7"/>
  <path d="M65.4,63.29c0,0,15.2-26.47,18.44-32.8c3.24-6.34,6.19-12.25,5.35-16.26 c-0.68-3.22-7.04-6.55-15.77-5.28S57.17,13.79,56.11,21.9c-1.13,8.59-0.56,33.22-0.56,33.22l-1.27,12.11l11.26,1.69L65.4,63.29z" fill="#A1C5CB" opacity="0.7"/>
  <path d="M14.09,47.45c0,0-5.84-4.08-7.95,4.65C3.69,62.19,11.2,60.4,11.2,60.4L14.09,47.45z"/>
  <path d="M30.91,37.53c0,0-1.41-6.97-3.8-11.9s-5.62-8.26-7.18-9.08c-1.62-0.84-5.95-1.35-10.21-1.48 c-2.89-0.09-5.7-0.14-5.7,2.04c0,2.54,3.24,2.87,5.49,3.1c3.24,0.33,6.67,0.75,7.88,1.06c2.25,0.56,5.14,6.19,6.05,8.73 c0.92,2.53,2.6,9.08,2.6,9.08L30.91,37.53z" fill="#848484"/>
  <path d="M58.64,59.21l2.53,4.36c0,0,4.22-3.52,4.86-3.45c0.63,0.07,1.76,5.91,1.76,5.91s3.94-0.99,4.5-0.63 c0.56,0.35,0.28,4.58,0.28,4.58s4.93,0.28,5.07,0.7c0.14,0.42-2.18,4.36-2.18,4.36s3.94,2.39,3.87,3.03 c-0.07,0.63-3.38,3.24-3.38,3.24s3.1,3.52,2.82,4.43s-4.72,1.13-4.72,1.13s1.06,4.58,0.77,5c-0.28,0.42-5.21,0.35-5.21,0.35 s2.39,3.87,2.04,4.29s-7.63,1.92-7.63,1.92s-3.66,4.08-6.31,4.62c-2.62,0.53-3.82-0.07-3.82-0.07l-3.07-3.03 c0,0-6.83,0.63-7.46,0.21c-0.63-0.42-0.77-8.45-0.77-8.45s-4.36,0.33-4.65-0.21s0.63-5,0.63-5l11.4-18.16L58.64,59.21z" fill="#FE8D00"/>
  <path d="M49.42,94.54c-2.72-1.93-5.85,1.86-7.53,3.17c-2.53,1.97-4.93,5.42-13.16,7.6 c-4.84,1.28-4.58,3.03-4.08,4.65c0.62,2.04,3.59,1.83,7.18,0.84s7.77-3.23,9.43-4.43c2.04-1.48,6.9-6.05,7.81-6.9 C49.99,98.63,51.6,96.09,49.42,94.54z" fill="#848484"/>
  <path d="M57.02,96.72c-2.29-0.93-3.8,0.7-5,4.08s-3.45,9.64-4.5,12.04c-1.06,2.39-3.77,6.88-0.77,8.38 c3.24,1.62,4.72-1.27,5.63-3.24s3.66-8.52,4.43-11.12c0.77-2.6,1.2-4.01,1.55-5C58.71,100.88,59.63,97.78,57.02,96.72z" fill="#848484"/>
  <path d="M64.84,96.37c-3.2,0.43-2.6,4.22-2.39,6.97c0.21,2.75,0.63,11.61,0.49,13.44 c-0.14,1.83,0,4.93,3.24,4.86c3.24-0.07,3.1-3.66,3.17-4.79s-0.49-11.97-0.56-13.66C68.71,101.51,68.99,95.81,64.84,96.37z" fill="#848484"/>
  <path d="M15.71,43.51c-5.04,5.23-8.46,20.64-5.28,29.63c3.24,9.15,9.85,15.42,21.68,15.91 s22.17-6.9,25.9-19.64c3.57-12.2-0.97-27.23-13.94-31.82C33.73,33.94,23.17,35.77,15.71,43.51z" fill="#FEBB00"/>
  <path d="M44.57,59.35c0,5.33-4.19,9.65-9.36,9.65s-9.36-3.38-9.36-9.65c0-5.33,4.19-9.71,9.36-9.65 C40.98,49.77,44.57,54.02,44.57,59.35z"/>
  <path d="M13.24,74.67c0.74-0.74,2.46-3.45,4.22-1.62s-1.34,4.15-1.9,4.65c-0.75,0.66-2.25,1.06-3.03-0.07 C12,76.85,12.33,75.58,13.24,74.67z" fill="#FE8D00"/>
  <path d="M27.25,12.75c-0.26,1.95,0.73,2.55,3.31,3.24c2.34,0.62,7.1,1.75,8.24,2.53 c0.92,0.63,3.17,6.41,3.73,13.51c0.29,3.68,0.14,7.18,0,9.92c-0.12,2.28,0.35,3.8,2.18,4.08c1.66,0.26,3-0.87,3.24-4.08 c0.28-3.87,0.5-5.94,0-10.98c-0.38-3.83-1.03-6.99-2.25-11.12c-1-3.38-2.57-5.19-4.15-6.34c-1.91-1.37-6.05-2.18-9.43-2.53 C29.28,10.7,27.53,10.66,27.25,12.75z" fill="#848484"/>
</svg>

<svg viewBox="0 0 128 128" xmlns="http://www.w3.org/2000/svg">
  <defs/>
  <path d="M111.81,64.6 C111.81,64.6 123.29,63.13 123.64,63.94 C124.2,65.25 115.85,74.08 115.85,74.08 L111.81,64.6 Z" fill="#5C6063"/>
  <path d="M70.05,68.08 C70.05,68.08 76.06,60.95 87.23,58.51 C98.4,56.07 112,60.57 115,68.17 C118.24,76.38 117.07,85.59 111.62,92.2 C105.89,99.15 97.07,106.56 82.24,105.43 C70.47,104.54 66.75,99.61 66.75,99.61 L70.05,68.08 Z" fill="#FCD41E"/>
  <path d="M99.05,76.34 C101.99,84.07 102.62,91.73 102.52,95.58 C102.43,99.43 102.14,100.74 102.14,100.74 C102.14,100.74 106.08,98.21 108.52,95.86 C110.63,93.83 112.18,91.64 112.18,91.64 C112.18,91.64 113.21,80.47 109.18,71.09 C105.15,61.71 96.8,57.99 96.8,57.99 C96.8,57.99 93.94,57.38 90.7,57.76 C87.5,58.13 83.57,59.54 83.57,59.54 C83.57,59.54 94.26,63.76 99.05,76.34 Z" fill="#414340"/>
  <path d="M74.83,63.85 C74.83,63.85 81.68,67.51 86.09,77.93 C90.78,89 89.84,105.34 89.84,105.34 C89.84,105.34 86.93,105.79 83.74,105.72 C81.68,105.67 78.01,104.92 78.01,104.92 C78.01,104.92 79.06,91.73 75.3,83 C73.63,79.13 69.39,74.27 69.39,74.27 L70,67.7 L74.83,63.85 Z" fill="#414340"/>
  <path d="M39.92,89.57 C39.92,89.57 34.95,91.73 30.44,92.67 C25.94,93.61 22.18,93.7 20.87,93.8 C19.56,93.89 17.87,94.46 18.15,97.37 C18.39,99.9 22.09,99.64 24.34,99.53 C28,99.34 33.16,98.4 37.67,96.81 C42.18,95.22 46.77,92.77 46.77,92.77 L39.92,89.57 Z" fill="#5A6066"/>
  <path d="M66.25,65.26 C66.25,65.26 87.93,37.67 90.89,33.73 C93.85,29.79 98.21,22.75 103.14,22.61 C108.07,22.47 112.57,26.97 114.82,33.59 C117.07,40.21 117.21,46.88 113.69,51.33 C108.9,57.38 95.67,66.68 85.25,69.35 C74.83,72.02 68.78,72.73 68.78,72.73 L66.25,65.26 Z" fill="#6DA3AF" opacity="0.7"/>
  <path d="M65.4,63.29 C65.4,63.29 80.6,36.82 83.84,30.49 C87.08,24.15 90.03,18.24 89.19,14.23 C88.51,11.01 82.15,7.68 73.42,8.95 C64.69,10.22 57.17,13.79 56.11,21.9 C54.98,30.49 55.55,55.12 55.55,55.12 L54.28,67.23 L65.54,68.92 L65.4,63.29 Z" fill="#A1C5CB" opacity="0.7"/>
  <path d="M14.09,47.45 C14.09,47.45 8.25,43.37 6.14,52.1 C3.69,62.19 11.2,60.4 11.2,60.4 L14.09,47.45 Z"/>
  <path d="M30.91,37.53 C30.91,37.53 29.5,30.56 27.11,25.63 C24.72,20.7 21.49,17.37 19.93,16.55 C18.31,15.71 13.98,15.2 9.72,15.07 C6.83,14.98 4.02,14.93 4.02,17.11 C4.02,19.65 7.26,19.98 9.51,20.21 C12.75,20.54 16.18,20.96 17.39,21.27 C19.64,21.83 22.53,27.46 23.44,30 C24.36,32.53 26.04,39.08 26.04,39.08 L30.91,37.53 Z" fill="#848484"/>
  <path d="M58.64,59.21 L61.17,63.57 C61.17,63.57 65.39,60.05 66.03,60.12 C66.66,60.19 67.79,66.03 67.79,66.03 C67.79,66.03 71.73,65.04 72.29,65.4 C72.85,65.75 72.57,69.98 72.57,69.98 C72.57,69.98 77.5,70.26 77.64,70.68 C77.78,71.1 75.46,75.04 75.46,75.04 C75.46,75.04 79.4,77.43 79.33,78.07 C79.26,78.7 75.95,81.31 75.95,81.31 C75.95,81.31 79.05,84.83 78.77,85.74 C78.49,86.65 74.05,86.87 74.05,86.87 C74.05,86.87 75.11,91.45 74.82,91.87 C74.54,92.29 69.61,92.22 69.61,92.22 C69.61,92.22 72,96.09 71.65,96.51 C71.3,96.93 64.02,98.43 64.02,98.43 C64.02,98.43 60.36,102.51 57.71,103.05 C55.09,103.58 53.89,102.98 53.89,102.98 L50.82,99.95 C50.82,99.95 43.99,100.58 43.36,100.16 C42.73,99.74 42.59,91.71 42.59,91.71 C42.59,91.71 38.23,92.04 37.94,91.5 C37.65,90.96 38.57,86.5 38.57,86.5 L49.97,68.34 L58.64,59.21 Z" fill="#FE8D00"/>
  <path d="M49.42,94.54 C46.7,92.61 43.57,96.4 41.89,97.71 C39.36,99.68 36.96,103.13 28.73,105.31 C23.89,106.59 24.15,108.34 24.65,109.96 C25.27,112 28.24,111.79 31.83,110.8 C35.42,109.81 39.6,107.57 41.26,106.37 C43.3,104.89 48.16,100.32 49.07,99.47 C49.99,98.63 51.6,96.09 49.42,94.54 Z" fill="#848484"/>
  <path d="M57.02,96.72 C54.73,95.79 53.22,97.42 52.02,100.8 C50.82,104.18 48.57,110.44 47.52,112.84 C46.46,115.23 43.75,119.72 46.75,121.22 C49.99,122.84 51.47,119.95 52.38,117.98 C53.29,116.01 56.04,109.46 56.81,106.86 C57.58,104.26 58.01,102.85 58.36,101.86 C58.71,100.88 59.63,97.78 57.02,96.72 Z" fill="#848484"/>
  <path d="M64.84,96.37 C61.64,96.8 62.24,100.59 62.45,103.34 C62.66,106.09 63.08,114.95 62.94,116.78 C62.8,118.61 62.94,121.71 66.18,121.64 C69.42,121.57 69.28,117.98 69.35,116.85 C69.42,115.72 68.86,104.88 68.79,103.19 C68.71,101.51 68.99,95.81 64.84,96.37 Z" fill="#848484"/>
  <path d="M15.71,43.51 C10.67,48.74 7.25,64.15 10.43,73.14 C13.67,82.29 20.28,88.56 32.11,89.05 C43.94,89.54 54.28,82.15 58.01,69.41 C61.58,57.21 57.04,42.18 44.07,37.59 C33.73,33.94 23.17,35.77 15.71,43.51 Z" fill="#FEBB00"/>
  <path d="M44.57,59.35 C44.57,64.68 40.38,69 35.21,69 C30.04,69 25.85,65.62 25.85,59.35 C25.85,54.02 30.04,49.64 35.21,49.7 C40.98,49.77 44.57,54.02 44.57,59.35 Z"/>
  <path d="M13.24,74.67 C13.98,73.93 15.7,71.22 17.46,73.05 C19.22,74.88 16.12,77.2 15.56,77.7 C14.81,78.36 13.31,78.76 12.53,77.63 C12,76.85 12.33,75.58 13.24,74.67 Z" fill="#FE8D00"/>
  <path d="M27.25,12.75 C26.99,14.7 27.98,15.3 30.56,15.99 C32.9,16.61 37.66,17.74 38.8,18.52 C39.72,19.15 41.97,24.93 42.53,32.03 C42.82,35.71 42.67,39.21 42.53,41.95 C42.41,44.23 42.88,45.75 44.71,46.03 C46.37,46.29 47.71,45.16 47.95,41.95 C48.23,38.08 48.45,36.01 47.95,30.97 C47.57,27.14 46.92,23.98 45.7,19.85 C44.7,16.47 43.13,14.66 41.55,13.51 C39.64,12.14 35.5,11.33 32.12,10.98 C29.28,10.7 27.53,10.66 27.25,12.75 Z" fill="#848484"/>
</svg>
